X: 32105
T: Perth
R: reel
M: 4/4
K: Dmajor
||d2ef dfef|dBAF DEFA|d2ef dfef|dBAF E3F|
d2ef dfef|dBAF DEFA|d2ef dfef|dBAF E2z2||
AF~F2 BF~F2|AF~F2 DEFG|AF~F2 BF~F2|AFEF D2dB|
AF~F2 BF~F2|AFFE DEFA|d2fe dBAF|ABAF D2z2||

